public/icons/electrical_icon.svg

<svg xmlns="http://www.w3.org/2000/svg" width="330" height="330" fill="none" viewBox="0 0 330 330"><g clip-path="url(#a)"><path fill="#000" d="M130.731 19.993c17.8.066 66.95-3.243 81.01 3.419 6.88 3.262 12.59 8.98 15.02 16.284 2.08 6.222 3.79 15.248.75 21.361 16.37.098 61.43-2.638 74.26 1.877 6.97 2.45 12.23 7.281 15.28 14.036 1.92 4.256 2.11 9.06 2.32 13.663.56 12.26.03 24.754-.02 37.032l-.02 63.06.05 60.819c.01 10.607.51 21.515-.1 32.096-.15 2.589-.84 5.192-1.78 7.601-2.75 7.04-8.54 13.548-15.61 16.44-4.09 1.674-8.71 2.083-13.09 2.319-23.29 1.256-47.24.094-70.59.058-19.66-.03-41.66 1.049-60.99.337-2.77-.103-5.67-.631-8.23-1.743-2.45-1.066-3.51-2.305-4.49-4.699 1.25-2.366 2.55-3.133 5.16-3.783 8.6-2.141 20.24-.73 29.25-.718l73.84.137c12.14.021 24.97.877 37.05-.192 3.25-.287 6.44-.862 9.28-2.54 4.32-2.557 7.77-6.73 8.89-11.663 3.16-13.883.86-48.076.89-64.044.04-20.736 1.66-42.626.01-63.255-.18-2.165-.61-3.726-1.74-5.576-2.99 2.991-74.16 32.301-78.27 32.542-1.97.115-2.73-.038-4.14-1.325-.12-.786-.26-1.536-.14-2.333.49-3.109 3.6-6.35 6.17-8.018 3.87-2.513 9.24-3.796 13.53-5.559 12.67-5.206 52.55-19.592 60.93-27.592 3.44-3.289 3.71-9.421 3.8-13.912.23-11.063 2.47-41.749-5.06-49.345-8.34-8.419-27.4-5.414-38.34-5.455q-3.66-.103-7.32-.169c-46.71-.809-93.58-.079-140.31-.06l-49.08.054c-9.91.029-20.12-.402-29.97.732-4.81.553-7.74 1.082-11.24 4.558-8.47 8.409-5.57 21.476-5.55 32.213.01 6.574-.44 13.14-.37 19.715.04 3.273-.13 7.581 1.91 10.335 8.79 11.835 73.59 28.677 82.59 38.733 1.6 1.785 1.53 2.552 1.27 4.737l-1.93 1.472c-13.26 2.648-67.53-26.187-85.22-31.066 5.45 9.351-1.41 110.238 2 130.568.64 3.837 2.14 7.737 4.91 10.549 2.94 2.993 6.83 4.499 10.89 5.276 7.67 1.468 16.42.585 24.24.559l43.7-.109c4.72.002 8.63-.322 12.14 3.182.11 2.606-.16 3.148-1.38 5.489-2.16 1.972-4.91 1.956-7.68 2.016-15.09.326-65.39 1.622-77.65-1.337-4.14-1-8.19-3.718-11.2-6.661-8.33-8.128-9.06-15.556-9.26-26.491-.82-43.255-.08-86.669-.06-129.938 0-15.208-1.61-49.338.61-62.339.94-5.535 3.94-10.662 7.87-14.618 3.87-3.889 9.13-6.227 14.45-7.326 10.14-2.092 21.7-.715 32-.518 11.5.142 23.01.195 34.51.159 4.26-7.752-.4-20.5 8.96-31.561 5.03-5.942 13.8-8.77 21.29-9.483"/><path fill="#fefefe" d="M131.761 30.623c14.91.363 65.14-2.107 75.47 2.995 4.49 2.214 8.79 5.866 10.25 10.818 1.17 3.97.74 12.44-1.31 15.966l-18.17-.071-86.46.033c3.58-6.042.67-15.315 5.24-21.988 3.38-4.945 9.37-6.774 14.98-7.753"/><path fill="#000" d="M182.181 97.057c1.92-.291 3.49-.032 5.39.305 1.51 1.342 2.29 1.829 2.42 4.013.42 6.937-11.76 64.642-14.39 74.016-.49 1.751-1.23 3.05-2.37 4.456l22.22-.15c6.12-.021 17.42-1.172 22.1 3.475.46 2.786-.65 4.802-2.03 7.198-9.42 16.296-23.04 31.71-34.15 46.983-14.01 19.237-28.86 42.538-43.98 60.383-1.38 1.632-2.53 2.51-4.65 3.062-1.79.103-2.31-.315-3.88-1.102-7.81-9.542 17.38-70.859 13.28-83.414-10.17.083-27.37 1.946-36.72-.96-2.12-.659-3.28-1.187-4.39-3.159.68-3.972 2.65-7.477 4.8-10.839 9.85-15.408 21.85-30.074 32.72-44.832 14.56-19.766 28.62-40.017 43.63-59.435"/><path fill="#fed100" d="M172.48 127.173c.21.189 1.49 1.264 1.52 1.408.29 1.469-1.2 6.242-1.52 7.839-2.25 11.292-10.93 42.305-6.87 51.833 3.38 3.204 29.55 1.646 36.25 1.638-.06.574-.15 1.214-.35 1.758-1.45 4.048-51.74 72.536-57.87 79.385-.79.879-1.8 1.501-2.83 2.049.33-.569.62-1.067.84-1.691 3.75-10.352 11.82-44.171 12.7-54.831.26-3.236.18-5.85-1.21-8.838-3.4-2.982-32.9-1.648-39.05-1.797 4.76-3.319 55.04-71.457 58.39-78.753"/></g><defs><clipPath id="a"><path fill="#fff" d="M0 0h330v330H0z"/></clipPath></defs></svg>

<svg width="330" height="330" viewBox="0 0 330 330" fill="none" xmlns="http://www.w3.org/2000/svg">
<g clip-path="url(#clip0_3_235)">
<path d="M130.731 19.993C148.531 20.059 197.681 16.75 211.741 23.412C218.621 26.674 224.331 32.392 226.761 39.696C228.841 45.918 230.551 54.944 227.511 61.057C243.881 61.155 288.941 58.419 301.771 62.934C308.741 65.384 314.001 70.215 317.051 76.97C318.971 81.226 319.161 86.03 319.371 90.633C319.931 102.893 319.401 115.387 319.351 127.665L319.331 190.725L319.381 251.544C319.391 262.151 319.891 273.059 319.281 283.64C319.131 286.229 318.441 288.832 317.501 291.241C314.751 298.281 308.961 304.789 301.891 307.681C297.801 309.355 293.181 309.764 288.801 310C265.511 311.256 241.561 310.094 218.211 310.058C198.551 310.028 176.551 311.107 157.221 310.395C154.451 310.292 151.551 309.764 148.991 308.652C146.541 307.586 145.481 306.347 144.501 303.953C145.751 301.587 147.051 300.82 149.661 300.17C158.261 298.029 169.901 299.44 178.911 299.452L252.751 299.589C264.891 299.61 277.721 300.466 289.801 299.397C293.051 299.11 296.241 298.535 299.081 296.857C303.401 294.3 306.851 290.127 307.971 285.194C311.131 271.311 308.831 237.118 308.861 221.15C308.901 200.414 310.521 178.524 308.871 157.895C308.691 155.73 308.261 154.169 307.131 152.319C304.141 155.31 232.971 184.62 228.861 184.861C226.891 184.976 226.131 184.823 224.721 183.536C224.601 182.75 224.461 182 224.581 181.203C225.071 178.094 228.181 174.853 230.751 173.185C234.621 170.672 239.991 169.389 244.281 167.626C256.951 162.42 296.831 148.034 305.211 140.034C308.651 136.745 308.921 130.613 309.011 126.122C309.241 115.059 311.481 84.373 303.951 76.777C295.611 68.358 276.551 71.363 265.611 71.322C263.171 71.253 260.731 71.197 258.291 71.153C211.581 70.344 164.711 71.074 117.981 71.093L68.9006 71.147C58.9906 71.176 48.7807 70.745 38.9307 71.879C34.1207 72.432 31.1906 72.961 27.6906 76.437C19.2206 84.846 22.1206 97.913 22.1406 108.65C22.1506 115.224 21.7006 121.79 21.7706 128.365C21.8106 131.638 21.6407 135.946 23.6807 138.7C32.4707 150.535 97.2706 167.377 106.271 177.433C107.871 179.218 107.801 179.985 107.541 182.17L105.611 183.642C92.3506 186.29 38.0806 157.455 20.3906 152.576C25.8406 161.927 18.9806 262.814 22.3906 283.144C23.0306 286.981 24.5307 290.881 27.3007 293.693C30.2407 296.686 34.1306 298.192 38.1906 298.969C45.8606 300.437 54.6107 299.554 62.4307 299.528L106.131 299.419C110.851 299.421 114.761 299.097 118.271 302.601C118.381 305.207 118.111 305.749 116.891 308.09C114.731 310.062 111.981 310.046 109.211 310.106C94.1206 310.432 43.8207 311.728 31.5607 308.769C27.4207 307.769 23.3706 305.051 20.3606 302.108C12.0306 293.98 11.3006 286.552 11.1006 275.617C10.2806 232.362 11.0207 188.948 11.0407 145.679C11.0407 130.471 9.43064 96.341 11.6506 83.34C12.5906 77.805 15.5906 72.678 19.5206 68.722C23.3906 64.833 28.6506 62.495 33.9706 61.396C44.1106 59.304 55.6706 60.681 65.9706 60.878C77.4706 61.02 88.9806 61.073 100.481 61.037C104.741 53.285 100.081 40.537 109.441 29.476C114.471 23.534 123.241 20.706 130.731 19.993Z" fill="black"/>
<path d="M131.761 30.623C146.671 30.986 196.901 28.516 207.231 33.618C211.721 35.832 216.021 39.484 217.481 44.436C218.651 48.406 218.221 56.876 216.171 60.402L198.001 60.331L111.541 60.364C115.121 54.322 112.211 45.049 116.781 38.376C120.161 33.431 126.151 31.602 131.761 30.623Z" fill="#FEFEFE"/>
<path d="M182.181 97.057C184.101 96.766 185.671 97.025 187.571 97.362C189.081 98.704 189.861 99.191 189.991 101.375C190.411 108.312 178.231 166.017 175.601 175.391C175.111 177.142 174.371 178.441 173.231 179.847L195.451 179.697C201.571 179.676 212.871 178.525 217.551 183.172C218.011 185.958 216.901 187.974 215.521 190.37C206.101 206.666 192.481 222.08 181.371 237.353C167.361 256.59 152.511 279.891 137.391 297.736C136.011 299.368 134.861 300.246 132.741 300.798C130.951 300.901 130.431 300.483 128.861 299.696C121.051 290.154 146.241 228.837 142.141 216.282C131.971 216.365 114.771 218.228 105.421 215.322C103.301 214.663 102.141 214.135 101.031 212.163C101.711 208.191 103.681 204.686 105.831 201.324C115.681 185.916 127.681 171.25 138.551 156.492C153.111 136.726 167.171 116.475 182.181 97.057Z" fill="black"/>
<path d="M172.48 127.173C172.69 127.362 173.97 128.437 174 128.581C174.29 130.05 172.8 134.823 172.48 136.42C170.23 147.712 161.55 178.725 165.61 188.253C168.99 191.457 195.16 189.899 201.86 189.891C201.8 190.465 201.71 191.105 201.51 191.649C200.06 195.697 149.77 264.185 143.64 271.034C142.85 271.913 141.84 272.535 140.81 273.083C141.14 272.514 141.43 272.016 141.65 271.392C145.4 261.04 153.47 227.221 154.35 216.561C154.61 213.325 154.53 210.711 153.14 207.723C149.74 204.741 120.24 206.075 114.09 205.926C118.85 202.607 169.13 134.469 172.48 127.173Z" fill="#FED100"/>
</g>
<defs>
<clipPath id="clip0_3_235">
<rect width="330" height="330" fill="white"/>
</clipPath>
</defs>
</svg>
